app/assets/logo-plebanlaw.svg

<svg height="161" viewBox="0 0 608 161" width="608" xmlns="http://www.w3.org/2000/svg"><g fill="#fff"><path d="m147.36 0h22.22c10.33 0 16 7 16 15.31s-5.7 15.17-16 15.17h-12.1v17h-10.12zm20.87 8.69h-10.75v13.1h10.75c4 0 7-2.56 7-6.55s-3.01-6.55-7-6.55z"/><path d="m205.34 0h10.11v38.6h20.08v8.9h-30.2v-47.5z"/><path d="m256.12 0h33.62v8.69h-23.5v10.33h23v8.69h-23v11h23.5v8.76h-33.62z"/><path d="m311.18 0h25c9 0 13.68 5.77 13.68 12.11 0 6-3.7 10-8.19 10.9 5.06.78 9.12 5.7 9.12 11.68 0 7.12-4.77 12.82-13.82 12.82h-25.79zm22.82 19.09c3.42 0 5.55-2.21 5.55-5.27s-2.14-5.2-5.55-5.2h-12.71v10.47zm.36 19.8c3.85 0 6.13-2.21 6.13-5.63 0-3-2.14-5.55-6.13-5.55h-13v11.18z"/><path d="m402.2 39.35h-21.2l-3 8.19h-11.12l18.38-47.54h12.68l18.3 47.5h-11zm-18.52-8.76h15.74l-7.83-21.83z"/><path d="m444.3 15.6v31.91h-10.11v-47.51h10.4l22 30.77v-30.77h10.11v47.5h-9.76z"/><path d="m147.45 67.83h22.63c10.52 0 16.25 7.11 16.25 15.6s-5.8 15.45-16.25 15.45h-12.33v17.34h-10.3zm21.25 8.85h-11v13.35h11c4.06 0 7.11-2.61 7.11-6.67s-3.04-6.68-7.1-6.68z"/><path d="m206.48 67.83h34.24v8.85h-23.93v10.52h23.43v8.85h-23.43v11.24h23.94v8.92h-34.25z"/><path d="m273.72 76.9h-14.15v-9.07h38.59v9.07h-14.07v39.32h-10.37z"/><path d="m336.38 98.88h-7.55v17.34h-10.3v-48.39h22.63c10.08 0 16.25 6.6 16.25 15.6 0 8.56-5.37 13.13-10.59 14.36l10.88 18.43h-11.82zm3.26-22.2h-10.8v13.35h10.81c4.13 0 7.25-2.61 7.25-6.67s-3.12-6.68-7.26-6.68z"/><path d="m378.95 67.83h10.44v28.73c0 6.75 3.7 11.39 11.24 11.39s11.1-4.64 11.1-11.39v-28.73h10.44v29c0 12-6.89 20.24-21.54 20.24s-21.69-8.27-21.69-20.17v-29.07z"/><path d="m447.84 101.56c4.017226 4.189385 9.575805 6.549432 15.38 6.53 5.66 0 8.42-2.68 8.42-5.44 0-3.63-4.21-4.86-9.8-6.16-7.91-1.81-18.06-4-18.06-14.8 0-8.05 7-14.58 18.35-14.58 7.69 0 14.07 2.32 18.86 6.74l-5.73 7.5c-3.80217-3.4177955-8.7375-5.3028418-13.85-5.29-4.64 0-7.11 2-7.11 4.93 0 3.26 4.06 4.28 9.65 5.59 8 1.81 18.13 4.21 18.13 14.94 0 8.85-6.31 15.53-19.37 15.53-9.29 0-16-3.12-20.46-7.69z"/><path d="m516.89 96.85-3.77 4.5v14.87h-10.3v-48.39h10.3v21.62l17.12-21.62h12.69l-19.22 22.71 20.53 25.68h-12.7z"/><path d="m593.55 107.87h-21.62l-3 8.34h-11.36l18.72-48.39h12.91l18.64 48.39h-11.24zm-18.86-8.92h16l-8-22.2z"/><path d="m82.07 52.86h-17.47v-17.46h-10.29v17.46h-17.47v10.29h17.47v17.47h10.29v-17.47h17.47z"/><path d="m0 115.42h11.77v-60.29-43.63h52.4v-11.15h-64.17z"/><path d="m107.9 103.66-53.16-.01v56.95h11.77v-45.18h53.16v-62.06h-11.77z"/><path d="m166.91 153.35-.09 7.16h-19.61v-1.76h.32c.751741.106171 1.513546-.10786 2.1-.59.368976-.598509.537148-1.299222.48-2v-12.81c.070204-.721606-.109864-1.445406-.51-2.05-.585794-.467789-1.336671-.677168-2.08-.58h-.32v-1.76h11.54v1.76h-.43c-.751741-.106171-1.513546.10786-2.1.59-.369632.598236-.537855 1.299167-.48 2v12.34c-.030528.611136.023312 1.223564.16 1.82.166333.354598.463941.630692.83.77.756033.269373 1.559076.381663 2.36.33 1.54159.123064 3.0664-.390024 4.22-1.42.985417-1.057712 1.64508-2.377039 1.9-3.8z"/><path d="m175.61 154.68-.41 1.06c-.228849.500249-.377341 1.033471-.44 1.58-.044381.432029.156286.852658.52 1.09.535387.243815 1.123096.350359 1.71.31v1.76h-7.11v-1.76c1.333333 0 2.47-1.153333 3.41-3.46l6.62-16.68h1.86l6.74 16.66c.32566 1.143233.950487 2.178858 1.81 3 .460676.306406.997112.47945 1.55.5v1.76h-10.68v-1.76c.610877.06445 1.227985-.032081 1.79-.28.223813-.166813.353991-.430889.35-.71-.026289-.349834-.125047-.690378-.29-1l-.21-.49-.62-1.57h-6.62zm.68-1.82h5.22l-2.68-6.43z"/><path d="m198.84 160.93-5.24-17c-.203642-.982937-.616306-1.910579-1.21-2.72-.475513-.332015-1.052005-.487633-1.63-.44v-1.76h9.81v1.76c-1.173333 0-1.76.36-1.76 1.08.012823.496144.09702.987856.25 1.46l3 9.6 4.54-13.9h2.46l5.44 13.9 2.41-8.73c.151295-.504097.241935-1.024437.27-1.55 0-1.24-.703333-1.86-2.11-1.86v-1.76h6.93v1.76c-.627975-.004866-1.232209.239705-1.68.68-.473333.446667-1.03 1.803333-1.67 4.07l-4.32 15.45h-2.48l-5.62-14.44-4.82 14.44h-2.56z"/><path d="m251.73 153.35-.09 7.16h-19.64v-1.76h.32c.751741.106171 1.513546-.10786 2.1-.59.368976-.598509.537148-1.299222.48-2v-12.81c.070204-.721606-.109864-1.445406-.51-2.05-.585794-.467789-1.336671-.677168-2.08-.58h-.31v-1.76h11.54v1.76h-.43c-.751741-.106171-1.513546.10786-2.1.59-.369632.598236-.537855 1.299167-.48 2v12.34c-.030528.611136.023312 1.223564.16 1.82.166333.354598.463941.630692.83.77.756033.269373 1.559076.381663 2.36.33 1.54159.123064 3.0664-.390024 4.22-1.42.985417-1.057712 1.64508-2.377039 1.9-3.8h1.71z"/><path d="m255.29 158.19c-.022706-1.382499.937019-2.587401 2.289573-2.874482 1.352555-.28708 2.718969.424098 3.259794 1.696626.540824 1.272529.104526 2.749859-1.040857 3.524402s-2.678928.629281-3.65851-.346546c-.542958-.523725-.849763-1.245619-.85-2z"/><path d="m284.84 153.35-.09 7.16h-19.62v-1.76h.32c.751741.106171 1.513546-.10786 2.1-.59.368976-.598509.537148-1.299222.48-2v-12.81c.070204-.721606-.109864-1.445406-.51-2.05-.585794-.467789-1.336671-.677168-2.08-.58h-.32v-1.76h11.54v1.76h-.43c-.751741-.106171-1.513546.10786-2.1.59-.369632.598236-.537855 1.299167-.48 2v12.34c-.030528.611136.023312 1.223564.16 1.82.166333.354598.463941.630692.83.77.756033.269373 1.559076.381663 2.36.33 1.54159.123064 3.0664-.390024 4.22-1.42.99076-1.059236 1.654071-2.382384 1.91-3.81h1.71z"/><path d="m288.4 158.19c-.022706-1.382499.937019-2.587401 2.289573-2.874482 1.352555-.28708 2.718969.424098 3.259794 1.696626.540824 1.272529.104526 2.749859-1.040857 3.524402s-2.678928.629281-3.65851-.346546c-.542958-.523725-.849763-1.245619-.85-2z"/><path d="m317.82 152.22v8.08h-1.76c-.150135-.742842-.456958-1.445127-.9-2.06-1.886045 1.838839-4.448455 2.816029-7.08 2.7-3.016404.131505-5.939357-1.063252-8-3.27-1.969131-2.099342-3.044913-4.882032-3-7.76-.009719-2.904438 1.059373-5.709023 3-7.87 2.067732-2.334341 5.08569-3.600411 8.2-3.44 2.472502-.053153 4.864757.878567 6.65 2.59.273124-.621524.497143-1.263487.67-1.92h1.75l.22 7.95h-1.75c-.353432-1.844323-1.240022-3.54449-2.55-4.89-1.125648-1.086578-2.635651-1.683388-4.2-1.66-1.696836-.088375-3.308272.749878-4.21 2.19-.94 1.46-1.41 3.74-1.41 6.84-.046199 1.741161.125125 3.48128.51 5.18.283908 1.191955.995615 2.238165 2 2.94.963339.665074 2.109472 1.014505 3.28 1 1.553684.002222 3.050632-.583695 4.19-1.64 1.37437-1.356076 2.299363-3.101345 2.65-5h1.76z"/><path d="m322.67 158.19c-.022706-1.382499.937019-2.587401 2.289573-2.874482 1.352555-.28708 2.718969.424098 3.259794 1.696626.540824 1.272529.104526 2.749859-1.040857 3.524402s-2.678928.629281-3.65851-.346546c-.542958-.523725-.849763-1.245619-.85-2z"/></g></svg>

<?xml version="1.0" encoding="UTF-8"?>
<svg width="608px" height="161px" viewBox="0 0 608 161" version="1.1" xmlns="http://www.w3.org/2000/svg" xmlns:xlink="http://www.w3.org/1999/xlink">
    <!-- Generator: Sketch 42 (36781) - http://www.bohemiancoding.com/sketch -->
    <title>Group</title>
    <desc>Created with Sketch.</desc>
    <defs></defs>
    <g id="Page-1" stroke="none" stroke-width="1" fill="none" fill-rule="evenodd">
        <g id="Group" fill-rule="nonzero" fill="#FFFFFF">
            <g id="pleban_logo">
                <g id="Layer_1">
                    <path d="M147.36,0 L169.58,0 C179.91,0 185.58,7 185.58,15.31 C185.58,23.62 179.88,30.48 169.58,30.48 L157.48,30.48 L157.48,47.48 L147.36,47.48 L147.36,0 Z M168.23,8.69 L157.48,8.69 L157.48,21.79 L168.23,21.79 C172.23,21.79 175.23,19.23 175.23,15.24 C175.23,11.25 172.22,8.69 168.23,8.69 L168.23,8.69 Z" id="Shape"></path>
                    <polygon id="Shape" points="205.34 0 215.45 0 215.45 38.6 235.53 38.6 235.53 47.5 205.33 47.5 205.33 0"></polygon>
                    <polygon id="Shape" points="256.12 0 289.74 0 289.74 8.69 266.24 8.69 266.24 19.02 289.24 19.02 289.24 27.71 266.24 27.71 266.24 38.71 289.74 38.71 289.74 47.47 256.12 47.47"></polygon>
                    <path d="M311.18,0 L336.18,0 C345.18,0 349.86,5.77 349.86,12.11 C349.86,18.11 346.16,22.11 341.67,23.01 C346.73,23.79 350.79,28.71 350.79,34.69 C350.79,41.81 346.02,47.51 336.97,47.51 L311.18,47.51 L311.18,0 Z M334,19.09 C337.42,19.09 339.55,16.88 339.55,13.82 C339.55,10.76 337.41,8.62 334,8.62 L321.29,8.62 L321.29,19.09 L334,19.09 Z M334.36,38.89 C338.21,38.89 340.49,36.68 340.49,33.26 C340.49,30.26 338.35,27.71 334.36,27.71 L321.36,27.71 L321.36,38.89 L334.36,38.89 Z" id="Shape"></path>
                    <path d="M402.2,39.35 L381,39.35 L378,47.54 L366.88,47.54 L385.26,0 L397.94,0 L416.24,47.5 L405.24,47.5 L402.2,39.35 Z M383.68,30.59 L399.42,30.59 L391.59,8.76 L383.68,30.59 Z" id="Shape"></path>
                    <polygon id="Shape" points="444.3 15.6 444.3 47.51 434.19 47.51 434.19 0 444.59 0 466.59 30.77 466.59 0 476.7 0 476.7 47.5 466.94 47.5"></polygon>
                    <path d="M147.45,67.83 L170.08,67.83 C180.6,67.83 186.33,74.94 186.33,83.43 C186.33,91.92 180.53,98.88 170.08,98.88 L157.75,98.88 L157.75,116.22 L147.45,116.22 L147.45,67.83 Z M168.7,76.68 L157.7,76.68 L157.7,90.03 L168.7,90.03 C172.76,90.03 175.81,87.42 175.81,83.36 C175.81,79.3 172.77,76.68 168.71,76.68 L168.7,76.68 Z" id="Shape"></path>
                    <polygon id="Shape" points="206.48 67.83 240.72 67.83 240.72 76.68 216.79 76.68 216.79 87.2 240.22 87.2 240.22 96.05 216.79 96.05 216.79 107.29 240.73 107.29 240.73 116.21 206.48 116.21"></polygon>
                    <polygon id="Shape" points="273.72 76.9 259.57 76.9 259.57 67.83 298.16 67.83 298.16 76.9 284.09 76.9 284.09 116.22 273.72 116.22"></polygon>
                    <path d="M336.38,98.88 L328.83,98.88 L328.83,116.22 L318.53,116.22 L318.53,67.83 L341.16,67.83 C351.24,67.83 357.41,74.43 357.41,83.43 C357.41,91.99 352.04,96.56 346.82,97.79 L357.7,116.22 L345.88,116.22 L336.38,98.88 Z M339.64,76.68 L328.84,76.68 L328.84,90.03 L339.65,90.03 C343.78,90.03 346.9,87.42 346.9,83.36 C346.9,79.3 343.78,76.68 339.64,76.68 Z" id="Shape"></path>
                    <path d="M378.95,67.83 L389.39,67.83 L389.39,96.56 C389.39,103.31 393.09,107.95 400.63,107.95 C408.17,107.95 411.73,103.31 411.73,96.56 L411.73,67.83 L422.17,67.83 L422.17,96.83 C422.17,108.83 415.28,117.07 400.63,117.07 C385.98,117.07 378.94,108.8 378.94,96.9 L378.94,67.83 L378.95,67.83 Z" id="Shape"></path>
                    <path d="M447.84,101.56 C451.857226,105.749385 457.415805,108.109432 463.22,108.09 C468.88,108.09 471.64,105.41 471.64,102.65 C471.64,99.02 467.43,97.79 461.84,96.49 C453.93,94.68 443.78,92.49 443.78,81.69 C443.78,73.64 450.78,67.11 462.13,67.11 C469.82,67.11 476.2,69.43 480.99,73.85 L475.26,81.35 C471.45783,77.9322045 466.5225,76.0471582 461.41,76.06 C456.77,76.06 454.3,78.06 454.3,80.99 C454.3,84.25 458.36,85.27 463.95,86.58 C471.95,88.39 482.08,90.79 482.08,101.52 C482.08,110.37 475.77,117.05 462.71,117.05 C453.42,117.05 446.71,113.93 442.25,109.36 L447.84,101.56 Z" id="Shape"></path>
                    <polygon id="Shape" points="516.89 96.85 513.12 101.35 513.12 116.22 502.82 116.22 502.82 67.83 513.12 67.83 513.12 89.45 530.24 67.83 542.93 67.83 523.71 90.54 544.24 116.22 531.54 116.22"></polygon>
                    <path d="M593.55,107.87 L571.93,107.87 L568.93,116.21 L557.57,116.21 L576.29,67.82 L589.2,67.82 L607.84,116.21 L596.6,116.21 L593.55,107.87 Z M574.69,98.95 L590.69,98.95 L582.69,76.75 L574.69,98.95 Z" id="Shape"></path>
                    <polygon id="Shape" points="82.07 52.86 64.6 52.86 64.6 35.4 54.31 35.4 54.31 52.86 36.84 52.86 36.84 63.15 54.31 63.15 54.31 80.62 64.6 80.62 64.6 63.15 82.07 63.15"></polygon>
                    <polygon id="Shape" points="0 115.42 11.77 115.42 11.77 55.13 11.77 11.5 64.17 11.5 64.17 0.35 0 0.35"></polygon>
                    <polygon id="Shape" points="107.9 103.66 54.74 103.65 54.74 160.6 66.51 160.6 66.51 115.42 119.67 115.42 119.67 53.36 107.9 53.36"></polygon>
                    <path d="M166.91,153.35 L166.82,160.51 L147.21,160.51 L147.21,158.75 L147.53,158.75 C148.281741,158.856171 149.043546,158.64214 149.63,158.16 C149.998976,157.561491 150.167148,156.860778 150.11,156.16 L150.11,143.35 C150.180204,142.628394 150.000136,141.904594 149.6,141.3 C149.014206,140.832211 148.263329,140.622832 147.52,140.72 L147.2,140.72 L147.2,138.96 L158.74,138.96 L158.74,140.72 L158.31,140.72 C157.558259,140.613829 156.796454,140.82786 156.21,141.31 C155.840368,141.908236 155.672145,142.609167 155.73,143.31 L155.73,155.65 C155.699472,156.261136 155.753312,156.873564 155.89,157.47 C156.056333,157.824598 156.353941,158.100692 156.72,158.24 C157.476033,158.509373 158.279076,158.621663 159.08,158.57 C160.62159,158.693064 162.1464,158.179976 163.3,157.15 C164.285417,156.092288 164.94508,154.772961 165.2,153.35 L166.91,153.35 L166.91,153.35 Z" id="Shape"></path>
                    <path d="M175.61,154.68 L175.2,155.74 C174.971151,156.240249 174.822659,156.773471 174.76,157.32 C174.715619,157.752029 174.916286,158.172658 175.28,158.41 C175.815387,158.653815 176.403096,158.760359 176.99,158.72 L176.99,160.48 L169.88,160.48 L169.88,158.72 C171.213333,158.72 172.35,157.566667 173.29,155.26 L179.91,138.58 L181.77,138.58 L188.51,155.24 C188.83566,156.383233 189.460487,157.418858 190.32,158.24 C190.780676,158.546406 191.317112,158.71945 191.87,158.74 L191.87,160.5 L181.19,160.5 L181.19,158.74 C181.800877,158.80445 182.417985,158.707919 182.98,158.46 C183.203813,158.293187 183.333991,158.029111 183.33,157.75 C183.303711,157.400166 183.204953,157.059622 183.04,156.75 L182.83,156.26 L182.21,154.69 L175.59,154.69 L175.61,154.68 Z M176.29,152.86 L181.51,152.86 L178.83,146.43 L176.29,152.86 Z" id="Shape"></path>
                    <path d="M198.84,160.93 L193.6,143.93 C193.396358,142.947063 192.983694,142.019421 192.39,141.21 C191.914487,140.877985 191.337995,140.722367 190.76,140.77 L190.76,139.01 L200.57,139.01 L200.57,140.77 C199.396667,140.77 198.81,141.13 198.81,141.85 C198.822823,142.346144 198.90702,142.837856 199.06,143.31 L202.06,152.91 L206.6,139.01 L209.06,139.01 L214.5,152.91 L216.91,144.18 C217.061295,143.675903 217.151935,143.155563 217.18,142.63 C217.18,141.39 216.476667,140.77 215.07,140.77 L215.07,139.01 L222,139.01 L222,140.77 C221.372025,140.765134 220.767791,141.009705 220.32,141.45 C219.846667,141.896667 219.29,143.253333 218.65,145.52 L214.33,160.97 L211.85,160.97 L206.23,146.53 L201.41,160.97 L198.85,160.97 L198.84,160.93 Z" id="Shape"></path>
                    <path d="M251.73,153.35 L251.64,160.51 L232,160.51 L232,158.75 L232.32,158.75 C233.071741,158.856171 233.833546,158.64214 234.42,158.16 C234.788976,157.561491 234.957148,156.860778 234.9,156.16 L234.9,143.35 C234.970204,142.628394 234.790136,141.904594 234.39,141.3 C233.804206,140.832211 233.053329,140.622832 232.31,140.72 L232,140.72 L232,138.96 L243.54,138.96 L243.54,140.72 L243.11,140.72 C242.358259,140.613829 241.596454,140.82786 241.01,141.31 C240.640368,141.908236 240.472145,142.609167 240.53,143.31 L240.53,155.65 C240.499472,156.261136 240.553312,156.873564 240.69,157.47 C240.856333,157.824598 241.153941,158.100692 241.52,158.24 C242.276033,158.509373 243.079076,158.621663 243.88,158.57 C245.42159,158.693064 246.9464,158.179976 248.1,157.15 C249.085417,156.092288 249.74508,154.772961 250,153.35 L251.71,153.35 L251.73,153.35 Z" id="Shape"></path>
                    <path d="M255.29,158.19 C255.267294,156.807501 256.227019,155.602599 257.579573,155.315518 C258.932128,155.028438 260.298542,155.739616 260.839367,157.012144 C261.380191,158.284673 260.943893,159.762003 259.79851,160.536546 C258.653127,161.311089 257.119582,161.165827 256.14,160.19 C255.597042,159.666275 255.290237,158.944381 255.29,158.19 L255.29,158.19 Z" id="Shape"></path>
                    <path d="M284.84,153.35 L284.75,160.51 L265.13,160.51 L265.13,158.75 L265.45,158.75 C266.201741,158.856171 266.963546,158.64214 267.55,158.16 C267.918976,157.561491 268.087148,156.860778 268.03,156.16 L268.03,143.35 C268.100204,142.628394 267.920136,141.904594 267.52,141.3 C266.934206,140.832211 266.183329,140.622832 265.44,140.72 L265.12,140.72 L265.12,138.96 L276.66,138.96 L276.66,140.72 L276.23,140.72 C275.478259,140.613829 274.716454,140.82786 274.13,141.31 C273.760368,141.908236 273.592145,142.609167 273.65,143.31 L273.65,155.65 C273.619472,156.261136 273.673312,156.873564 273.81,157.47 C273.976333,157.824598 274.273941,158.100692 274.64,158.24 C275.396033,158.509373 276.199076,158.621663 277,158.57 C278.54159,158.693064 280.0664,158.179976 281.22,157.15 C282.21076,156.090764 282.874071,154.767616 283.13,153.34 L284.84,153.34 L284.84,153.35 Z" id="Shape"></path>
                    <path d="M288.4,158.19 C288.377294,156.807501 289.337019,155.602599 290.689573,155.315518 C292.042128,155.028438 293.408542,155.739616 293.949367,157.012144 C294.490191,158.284673 294.053893,159.762003 292.90851,160.536546 C291.763127,161.311089 290.229582,161.165827 289.25,160.19 C288.707042,159.666275 288.400237,158.944381 288.4,158.19 Z" id="Shape"></path>
                    <path d="M317.82,152.22 L317.82,160.3 L316.06,160.3 C315.909865,159.557158 315.603042,158.854873 315.16,158.24 C313.273955,160.078839 310.711545,161.056029 308.08,160.94 C305.063596,161.071505 302.140643,159.876748 300.08,157.67 C298.110869,155.570658 297.035087,152.787968 297.08,149.91 C297.070281,147.005562 298.139373,144.200977 300.08,142.04 C302.147732,139.705659 305.16569,138.439589 308.28,138.6 C310.752502,138.546847 313.144757,139.478567 314.93,141.19 C315.203124,140.568476 315.427143,139.926513 315.6,139.27 L317.35,139.27 L317.57,147.22 L315.82,147.22 C315.466568,145.375677 314.579978,143.67551 313.27,142.33 C312.144352,141.243422 310.634349,140.646612 309.07,140.67 C307.373164,140.581625 305.761728,141.419878 304.86,142.86 C303.92,144.32 303.45,146.6 303.45,149.7 C303.403801,151.441161 303.575125,153.18128 303.96,154.88 C304.243908,156.071955 304.955615,157.118165 305.96,157.82 C306.923339,158.485074 308.069472,158.834505 309.24,158.82 C310.793684,158.822222 312.290632,158.236305 313.43,157.18 C314.80437,155.823924 315.729363,154.078655 316.08,152.18 L317.84,152.18 L317.82,152.22 Z" id="Shape"></path>
                    <path d="M322.67,158.19 C322.647294,156.807501 323.607019,155.602599 324.959573,155.315518 C326.312128,155.028438 327.678542,155.739616 328.219367,157.012144 C328.760191,158.284673 328.323893,159.762003 327.17851,160.536546 C326.033127,161.311089 324.499582,161.165827 323.52,160.19 C322.977042,159.666275 322.670237,158.944381 322.67,158.19 Z" id="Shape"></path>
                </g>
            </g>
        </g>
    </g>
</svg>
